X:1
T:Title
%%score { ( 1 3 ) | ( 2 4 ) }
L:1/8
M:4/4
K:Bb
V:1 treble nm="Grand Piano"
V:3 treble 
V:2 bass 
V:4 bass 
V:1
 z4 z2[Q:1/4=112] [DF]2 | [DB]2 [DB]2 [DG]2 [B,D]2 | [DF]2 [DF]4 [DF]2 | [DB]2 [DB]2 [=EG]2 [Ec]2 | %4
 c6 dc | [DB]2 [DB]2 [DG]2 [B,D]2 | [DF]2 [DF]4 [DB]2 | d2 d2 d c3 |[M:3/4] [DB]6 |[M:1/4] [DF]2 | %10
[M:4/4] [DB]2 [DB]2 [EB] [EB]3 | [DB]6 [DB]c | d2 B2 G B3 | [DF]6 B2 | c2 c2 c2 c2 | c6 dc | %16
 [DB]2 [DB]2 G2 B2 | F2 G2 FEDF | [DB]2 [DB]2 [EB] [EB]3 | [DB]6 [DB]c | d2 B2 G B3 | [DF]6 F2 | %22
 B2 B2 c2 c2 |[M:9/8] d2 d- d [Ge]2- [Ge] [Ge]2 |[M:4/4] d2 d2 d c3 |[M:3/4] [DB]6 |] %26
V:2
 z4 z2 [B,,B,]2 | [B,,F,]2 [B,,F,]2 [B,,B,]2 [B,,F,]2 | [B,,B,]2 [B,,B,]4 [B,,B,]2 | %3
 [B,,B,]2 [B,,B,]2 [C,B,]2 [C,B,]2 | [F,A,F]6 [F,A,E]2 | [B,,F,]2 [B,,F,]2 [B,,B,]2 [B,,F,]2 | %6
 [B,,B,]2 [B,,B,]4 [B,,B,]2 | [F,B,F]2 [F,B,F]2 [F,A,F] [F,A,E]3 |[M:3/4] [B,,B,]6 | %9
[M:1/4] [B,,B,]2 |[M:4/4] [B,,F,]2 [B,,F,]2 [B,,G,] [B,,G,]3 | z4 z2 B,2[K:treble] | %12
 [B,F]2[K:bass] [B,D]2 [E,B,E] [E,G,E]3 | B,,2 D,F, B,2 [B,D]2 | %14
 [F,A,F]2 [F,A,F]2 [F,A,F]2 [F,A,F]2 | [F,A,F]6 [F,A,F][F,A,E] | %16
 [B,,B,]2 [B,,B,]2 [E,B,E]2 [E,G,E]2 | F,2 G,2 F,E,D,F, | [B,,F,]2 [B,,F,]2 [B,,G,] [B,,G,]3 | %19
 z4 z2 B,2[K:treble] | [B,F]2[K:bass] [B,D]2 [E,B,E] [E,G,E]3 | B,,2 D,F, B,2[K:treble] [B,D]2 | %22
 [B,D]2 [B,D]2 [F,A,F]2 [F,A,F]2 |[M:9/8] [B,F]2 [B,_A]- [B,A][K:bass] [E,B,]2- [E,B,] [E,B,]2 | %24
[M:4/4] [F,B,F]2 [F,B,F]2 [F,A,F] [F,A,E]3 |[M:3/4] [B,,F,B,]6 |] %26
V:3
 x8 | x8 | x8 | x8 | x8 | x8 | x8 | x8 |[M:3/4] x6 |[M:1/4] x2 |[M:4/4] x8 | B,4 z4 | x8 | B,4 z4 | %14
 x8 | x8 | x8 | x8 | x8 | B,4 z4 | x8 | B,4 z4 | x8 |[M:9/8] x9 |[M:4/4] x8 |[M:3/4] x6 |] %26
V:4
 x8 | x8 | x8 | x8 | x8 | x8 | x8 | x8 |[M:3/4] x6 |[M:1/4] x2 |[M:4/4] x8 | %11
 B,,2 D,F, B,2 z[K:treble] E | x2[K:bass] x6 | x8 | x8 | x8 | x8 | x8 | x8 | %19
 B,,2 D,F, B,2 z[K:treble] E | x2[K:bass] x6 | x6[K:treble] x2 | x8 |[M:9/8] x4[K:bass] x5 | %24
[M:4/4] x8 |[M:3/4] x6 |] %26

